assets/img/border.svg

<svg width="285" height="157" viewBox="0 0 285 157" fill="none" xmlns="http://www.w3.org/2000/svg">
<path d="M3.96522 11.8957H0L1.98261 9.91305L3.96522 11.8957Z" fill="#CAD7DC"/>
<path d="M10.9048 2.97391L2.97437 10.9043" stroke="#CAD7DC" stroke-width="2.80539"/>
<path d="M11.8956 3.96522L11.8956 0L9.91302 1.98261L11.8956 3.96522Z" fill="#CAD7DC"/>
<rect x="11.8956" width="14.8696" height="1.98256" fill="#CAD7DC"/>
<path d="M11.8956 3.96527V1.98267H13.8782L11.8956 3.96527Z" fill="#CAD7DC"/>
<rect y="26.7652" width="0.991304" height="15.8609" fill="#CAD7DC"/>
<path d="M0.991333 27.7565V26.7652H1.98264L0.991333 27.7565Z" fill="#CAD7DC"/>
<path d="M0.991333 42.6261V41.6348L1.98264 42.6261H0.991333Z" fill="#CAD7DC"/>
<rect x="26.7651" width="14.8696" height="0.991255" fill="#CAD7DC"/>
<path d="M26.7651 1.98267V0.991364H27.7564L26.7651 1.98267Z" fill="#CAD7DC"/>
<path d="M41.6349 1.98261V0.991302H40.6436L41.6349 1.98261Z" fill="#CAD7DC"/>
<rect y="11.8957" width="1.98261" height="14.8696" fill="#CAD7DC"/>
<path d="M1.98267 13.8783V11.8957H3.96527L1.98267 13.8783Z" fill="#CAD7DC"/>
<path d="M41.6348 -3.69549e-06L41.6348 1.9826L42.6261 0.991301L41.6348 -3.69549e-06Z" fill="#CAD7DC"/>
<path d="M42.1305 1.48697L43.1218 2.47827" stroke="#CAD7DC" stroke-width="1.4027"/>
<path d="M43.6169 1.9826L43.6169 3.96521L42.6256 2.97391L43.6169 1.9826Z" fill="#CAD7DC"/>
<path d="M1.98261 42.6261H0L0.991304 43.6174L1.98261 42.6261Z" fill="#CAD7DC"/>
<path d="M1.48696 43.1217L6.44348 48.0783" stroke="#CAD7DC" stroke-width="1.4027"/>
<path d="M7.93 48.5739H5.94739L6.93869 47.5826L7.93 48.5739Z" fill="#CAD7DC"/>
<rect x="6.93909" y="48.5739" width="0.991304" height="12.887" fill="#CAD7DC"/>
<path d="M6.93918 49.5652V48.5739H5.94788L6.93918 49.5652Z" fill="#CAD7DC"/>
<path d="M7.93034 62.6563V61.4609H6.93909L7.93034 62.6563Z" fill="#CAD7DC"/>
<path d="M101.609 0.991301L101.609 1.9826L102.104 1.48695L101.609 0.991301Z" fill="#CAD7DC"/>
<path d="M101.857 1.73477L103.84 3.71738" stroke="#CAD7DC" stroke-width="0.69887"/>
<path d="M104.087 3.46957L104.087 4.46088L103.591 3.96522L104.087 3.46957Z" fill="#CAD7DC"/>
<path d="M104.087 3.46957L104.087 6.44348L105.574 4.95652L104.087 3.46957Z" fill="#CAD7DC"/>
<path d="M104.831 5.70001L109.292 10.1609" stroke="#CAD7DC" stroke-width="2.10157"/>
<path d="M110.035 9.41738L110.035 12.3913L108.548 10.9043L110.035 9.41738Z" fill="#CAD7DC"/>
<rect x="45.6001" y="0.991302" width="56.0087" height="0.495603" fill="#CAD7DC"/>
<path d="M101.609 1.98262V1.48697H101.113L101.609 1.98262Z" fill="#CAD7DC"/>
<path d="M45.5999 1.48695V0.991302H45.1042L45.5999 1.48695Z" fill="#CAD7DC"/>
<rect x="43.6174" y="2.97391" width="57" height="0.991255" fill="#CAD7DC"/>
<path d="M43.6174 2.97388V1.98257L44.6087 2.97388H43.6174Z" fill="#CAD7DC"/>
<path d="M100.617 3.96521V2.97391L101.609 3.96521H100.617Z" fill="#CAD7DC"/>
<g opacity="0.4">
<path d="M3.96527 51.5478V49.5652L1.98267 51.5478H3.96527Z" fill="#CAD7DC"/>
<rect x="1.98267" y="51.5478" width="1.98261" height="6" fill="#CAD7DC"/>
<path d="M1.98267 59.5304V57.5478H3.96527L1.98267 59.5304Z" fill="#CAD7DC"/>
</g>
<path d="M3.96522 144.235H0L1.98261 146.218L3.96522 144.235Z" fill="#CAD7DC"/>
<path d="M10.9048 153.157L2.97437 145.227" stroke="#CAD7DC" stroke-width="2.80539"/>
<path d="M11.8956 152.166L11.8956 156.131L9.91302 154.148L11.8956 152.166Z" fill="#CAD7DC"/>
<rect width="14.8696" height="1.98256" transform="matrix(1 0 0 -1 11.8956 156.131)" fill="#CAD7DC"/>
<path d="M11.8956 152.166V154.148H13.8782L11.8956 152.166Z" fill="#CAD7DC"/>
<rect width="0.991304" height="15.8609" transform="matrix(1 0 0 -1 0 129.366)" fill="#CAD7DC"/>
<path d="M0.991333 128.374V129.366H1.98264L0.991333 128.374Z" fill="#CAD7DC"/>
<path d="M0.991333 113.505V114.496L1.98264 113.505H0.991333Z" fill="#CAD7DC"/>
<rect width="14.8696" height="0.991255" transform="matrix(1 0 0 -1 26.7651 156.131)" fill="#CAD7DC"/>
<path d="M26.7651 154.148V155.139H27.7564L26.7651 154.148Z" fill="#CAD7DC"/>
<path d="M41.6349 154.148V155.14H40.6436L41.6349 154.148Z" fill="#CAD7DC"/>
<rect width="1.98261" height="14.8696" transform="matrix(1 0 0 -1 0 144.235)" fill="#CAD7DC"/>
<path d="M1.98267 142.253V144.235H3.96527L1.98267 142.253Z" fill="#CAD7DC"/>
<path d="M41.6348 156.131L41.6348 154.148L42.6261 155.14L41.6348 156.131Z" fill="#CAD7DC"/>
<path d="M42.1305 154.644L43.1218 153.653" stroke="#CAD7DC" stroke-width="1.4027"/>
<path d="M43.6169 154.148L43.6169 152.166L42.6256 153.157L43.6169 154.148Z" fill="#CAD7DC"/>
<path d="M1.98261 113.505H0L0.991304 112.513L1.98261 113.505Z" fill="#CAD7DC"/>
<path d="M1.48696 113.009L6.44348 108.053" stroke="#CAD7DC" stroke-width="1.4027"/>
<path d="M7.93 107.557H5.94739L6.93869 108.548L7.93 107.557Z" fill="#CAD7DC"/>
<rect width="0.991304" height="12.887" transform="matrix(1 0 0 -1 6.93909 107.557)" fill="#CAD7DC"/>
<path d="M6.93918 106.566V107.557H5.94788L6.93918 106.566Z" fill="#CAD7DC"/>
<path d="M7.93034 93.4746V94.67H6.93909L7.93034 93.4746Z" fill="#CAD7DC"/>
<path d="M101.609 155.14L101.609 154.148L102.104 154.644L101.609 155.14Z" fill="#CAD7DC"/>
<path d="M101.857 154.396L103.84 152.413" stroke="#CAD7DC" stroke-width="0.69887"/>
<path d="M104.087 152.661L104.087 151.67L103.591 152.166L104.087 152.661Z" fill="#CAD7DC"/>
<path d="M104.087 152.661L104.087 149.687L105.574 151.174L104.087 152.661Z" fill="#CAD7DC"/>
<path d="M104.831 150.431L109.292 145.97" stroke="#CAD7DC" stroke-width="2.10157"/>
<path d="M110.035 146.713L110.035 143.74L108.548 145.227L110.035 146.713Z" fill="#CAD7DC"/>
<rect width="56.0087" height="0.495603" transform="matrix(1 0 0 -1 45.6001 155.14)" fill="#CAD7DC"/>
<path d="M101.609 154.148V154.644H101.113L101.609 154.148Z" fill="#CAD7DC"/>
<path d="M45.5999 154.644V155.14H45.1042L45.5999 154.644Z" fill="#CAD7DC"/>
<rect width="57" height="0.991255" transform="matrix(1 0 0 -1 43.6174 153.157)" fill="#CAD7DC"/>
<path d="M43.6174 153.157V154.148L44.6087 153.157H43.6174Z" fill="#CAD7DC"/>
<path d="M100.617 152.166V153.157L101.609 152.166H100.617Z" fill="#CAD7DC"/>
<g opacity="0.4">
<path d="M3.96527 104.583V106.566L1.98267 104.583H3.96527Z" fill="#CAD7DC"/>
<rect width="1.98261" height="6" transform="matrix(1 0 0 -1 1.98267 104.583)" fill="#CAD7DC"/>
<path d="M1.98267 96.6004V98.583H3.96527L1.98267 96.6004Z" fill="#CAD7DC"/>
</g>
<path d="M281.035 11.8957H285L283.017 9.91305L281.035 11.8957Z" fill="#CAD7DC"/>
<path d="M274.095 2.97391L282.026 10.9043" stroke="#CAD7DC" stroke-width="2.80539"/>
<path d="M273.104 3.96522L273.104 0L275.087 1.98261L273.104 3.96522Z" fill="#CAD7DC"/>
<rect width="14.8696" height="1.98256" transform="matrix(-1 0 0 1 273.104 0)" fill="#CAD7DC"/>
<path d="M273.104 3.96527V1.98267H271.122L273.104 3.96527Z" fill="#CAD7DC"/>
<rect width="0.991304" height="15.8609" transform="matrix(-1 0 0 1 285 26.7652)" fill="#CAD7DC"/>
<path d="M284.009 27.7565V26.7652H283.017L284.009 27.7565Z" fill="#CAD7DC"/>
<path d="M284.009 42.6261V41.6348L283.017 42.6261H284.009Z" fill="#CAD7DC"/>
<rect width="14.8696" height="0.991255" transform="matrix(-1 0 0 1 258.235 0)" fill="#CAD7DC"/>
<path d="M258.235 1.98267V0.991364H257.244L258.235 1.98267Z" fill="#CAD7DC"/>
<path d="M243.365 1.98261V0.991302H244.356L243.365 1.98261Z" fill="#CAD7DC"/>
<rect width="1.98261" height="14.8696" transform="matrix(-1 0 0 1 285 11.8957)" fill="#CAD7DC"/>
<path d="M283.017 13.8783V11.8957H281.035L283.017 13.8783Z" fill="#CAD7DC"/>
<path d="M243.365 -3.69549e-06L243.365 1.9826L242.374 0.991301L243.365 -3.69549e-06Z" fill="#CAD7DC"/>
<path d="M242.869 1.48697L241.878 2.47827" stroke="#CAD7DC" stroke-width="1.4027"/>
<path d="M241.383 1.9826L241.383 3.96521L242.374 2.97391L241.383 1.9826Z" fill="#CAD7DC"/>
<path d="M283.017 42.6261H285L284.009 43.6174L283.017 42.6261Z" fill="#CAD7DC"/>
<path d="M283.513 43.1217L278.557 48.0783" stroke="#CAD7DC" stroke-width="1.4027"/>
<path d="M277.07 48.5739H279.053L278.061 47.5826L277.07 48.5739Z" fill="#CAD7DC"/>
<rect width="0.991304" height="12.887" transform="matrix(-1 0 0 1 278.061 48.5739)" fill="#CAD7DC"/>
<path d="M278.061 49.5652V48.5739H279.052L278.061 49.5652Z" fill="#CAD7DC"/>
<path d="M277.07 62.6563V61.4609H278.061L277.07 62.6563Z" fill="#CAD7DC"/>
<path d="M183.391 0.991301L183.391 1.9826L182.896 1.48695L183.391 0.991301Z" fill="#CAD7DC"/>
<path d="M183.143 1.73477L181.16 3.71738" stroke="#CAD7DC" stroke-width="0.69887"/>
<path d="M180.913 3.46957L180.913 4.46088L181.409 3.96522L180.913 3.46957Z" fill="#CAD7DC"/>
<path d="M180.913 3.46957L180.913 6.44348L179.426 4.95652L180.913 3.46957Z" fill="#CAD7DC"/>
<path d="M180.169 5.70001L175.708 10.1609" stroke="#CAD7DC" stroke-width="2.10157"/>
<path d="M174.965 9.41738L174.965 12.3913L176.452 10.9043L174.965 9.41738Z" fill="#CAD7DC"/>
<rect width="56.0087" height="0.495603" transform="matrix(-1 0 0 1 239.4 0.991302)" fill="#CAD7DC"/>
<path d="M183.391 1.98262V1.48697H183.887L183.391 1.98262Z" fill="#CAD7DC"/>
<path d="M239.4 1.48695V0.991302H239.896L239.4 1.48695Z" fill="#CAD7DC"/>
<rect width="57" height="0.991255" transform="matrix(-1 0 0 1 241.383 2.97391)" fill="#CAD7DC"/>
<path d="M241.383 2.97388V1.98257L240.391 2.97388H241.383Z" fill="#CAD7DC"/>
<path d="M184.383 3.96521V2.97391L183.391 3.96521H184.383Z" fill="#CAD7DC"/>
<g opacity="0.4">
<path d="M281.035 51.5478V49.5652L283.017 51.5478H281.035Z" fill="#CAD7DC"/>
<rect width="1.98261" height="6" transform="matrix(-1 0 0 1 283.017 51.5478)" fill="#CAD7DC"/>
<path d="M283.017 59.5304V57.5478H281.035L283.017 59.5304Z" fill="#CAD7DC"/>
</g>
<path d="M281.035 144.235H285L283.017 146.218L281.035 144.235Z" fill="#CAD7DC"/>
<path d="M274.095 153.157L282.026 145.227" stroke="#CAD7DC" stroke-width="2.80539"/>
<path d="M273.104 152.166L273.104 156.131L275.087 154.148L273.104 152.166Z" fill="#CAD7DC"/>
<rect x="273.104" y="156.131" width="14.8696" height="1.98256" transform="rotate(180 273.104 156.131)" fill="#CAD7DC"/>
<path d="M273.104 152.166V154.148H271.122L273.104 152.166Z" fill="#CAD7DC"/>
<rect x="285" y="129.366" width="0.991304" height="15.8609" transform="rotate(180 285 129.366)" fill="#CAD7DC"/>
<path d="M284.009 128.374V129.366H283.017L284.009 128.374Z" fill="#CAD7DC"/>
<path d="M284.009 113.505V114.496L283.017 113.505H284.009Z" fill="#CAD7DC"/>
<rect x="258.235" y="156.131" width="14.8696" height="0.991255" transform="rotate(180 258.235 156.131)" fill="#CAD7DC"/>
<path d="M258.235 154.148V155.139H257.244L258.235 154.148Z" fill="#CAD7DC"/>
<path d="M243.365 154.148V155.14H244.356L243.365 154.148Z" fill="#CAD7DC"/>
<rect x="285" y="144.235" width="1.98261" height="14.8696" transform="rotate(180 285 144.235)" fill="#CAD7DC"/>
<path d="M283.017 142.253V144.235H281.035L283.017 142.253Z" fill="#CAD7DC"/>
<path d="M243.365 156.131L243.365 154.148L242.374 155.14L243.365 156.131Z" fill="#CAD7DC"/>
<path d="M242.869 154.644L241.878 153.653" stroke="#CAD7DC" stroke-width="1.4027"/>
<path d="M241.383 154.148L241.383 152.166L242.374 153.157L241.383 154.148Z" fill="#CAD7DC"/>
<path d="M283.017 113.505H285L284.009 112.513L283.017 113.505Z" fill="#CAD7DC"/>
<path d="M283.513 113.009L278.557 108.053" stroke="#CAD7DC" stroke-width="1.4027"/>
<path d="M277.07 107.557H279.053L278.061 108.548L277.07 107.557Z" fill="#CAD7DC"/>
<rect x="278.061" y="107.557" width="0.991304" height="12.887" transform="rotate(180 278.061 107.557)" fill="#CAD7DC"/>
<path d="M278.061 106.566V107.557H279.052L278.061 106.566Z" fill="#CAD7DC"/>
<path d="M277.07 93.4746V94.67H278.061L277.07 93.4746Z" fill="#CAD7DC"/>
<path d="M183.391 155.14L183.391 154.148L182.896 154.644L183.391 155.14Z" fill="#CAD7DC"/>
<path d="M183.143 154.396L181.16 152.413" stroke="#CAD7DC" stroke-width="0.69887"/>
<path d="M180.913 152.661L180.913 151.67L181.409 152.166L180.913 152.661Z" fill="#CAD7DC"/>
<path d="M180.913 152.661L180.913 149.687L179.426 151.174L180.913 152.661Z" fill="#CAD7DC"/>
<path d="M180.169 150.431L175.708 145.97" stroke="#CAD7DC" stroke-width="2.10157"/>
<path d="M174.965 146.713L174.965 143.74L176.452 145.227L174.965 146.713Z" fill="#CAD7DC"/>
<rect x="239.4" y="155.14" width="56.0087" height="0.495603" transform="rotate(180 239.4 155.14)" fill="#CAD7DC"/>
<path d="M183.391 154.148V154.644H183.887L183.391 154.148Z" fill="#CAD7DC"/>
<path d="M239.4 154.644V155.14H239.896L239.4 154.644Z" fill="#CAD7DC"/>
<rect x="241.383" y="153.157" width="57" height="0.991255" transform="rotate(180 241.383 153.157)" fill="#CAD7DC"/>
<path d="M241.383 153.157V154.148L240.391 153.157H241.383Z" fill="#CAD7DC"/>
<path d="M184.383 152.166V153.157L183.391 152.166H184.383Z" fill="#CAD7DC"/>
<g opacity="0.4">
<path d="M281.035 104.583V106.566L283.017 104.583H281.035Z" fill="#CAD7DC"/>
<rect x="283.017" y="104.583" width="1.98261" height="6" transform="rotate(180 283.017 104.583)" fill="#CAD7DC"/>
<path d="M283.017 96.6004V98.583H281.035L283.017 96.6004Z" fill="#CAD7DC"/>
</g>
</svg>

<svg xmlns="http://www.w3.org/2000/svg" width="285" height="157" fill="none" xmlns:v="https://vecta.io/nano"><style><![CDATA[.B{fill:#cad7dc}.C{stroke:#cad7dc}.D{stroke-width:1.403}.E{stroke-width:2.805}.F{stroke-width:.699}.G{stroke-width:2.102}]]></style><path d="M3.965 11.896H0l1.983-1.983 1.983 1.983z" class="B"/><path d="M10.905 2.974l-7.93 7.93" class="C E"/><g class="B"><path d="M11.896 3.965V0L9.913 1.983l1.983 1.983z"/><path d="M11.896 0h14.87v1.983h-14.87z"/><path d="M11.896 3.965V1.983h1.983l-1.983 1.983zM0 26.765h.991v15.861H0z"/><path d="M.991 27.757v-.991h.991l-.991.991zm0 14.869v-.991l.991.991H.991zM26.765 0h14.87v.991h-14.87z"/><path d="M26.765 1.983V.991h.991l-.991.991zm14.87 0V.991h-.991l.991.991zM0 11.896h1.983v14.87H0z"/><path d="M1.983 13.878v-1.983h1.983l-1.983 1.983zM41.635 0v1.983l.991-.991L41.635 0z"/></g><path d="M42.131 1.487l.991.991" class="C D"/><path d="M43.617 1.983v1.983l-.991-.991.991-.991zM1.983 42.626H0l.991.991.991-.991z" class="B"/><path d="M1.487 43.122l4.957 4.957" class="C D"/><g class="B"><path d="M7.93 48.574H5.947l.991-.991.991.991z"/><path d="M6.939 48.574h.991v12.887h-.991z"/><path d="M6.939 49.565v-.991h-.991l.991.991zm.991 13.091v-1.195h-.991l.991 1.195zM101.609.991v.991l.495-.496-.495-.496z"/></g><path d="M101.857 1.735l1.983 1.983" class="C F"/><g class="B"><path d="M104.087 3.47v.991l-.496-.496.496-.496z"/><path d="M104.087 3.47v2.974l1.487-1.487-1.487-1.487z"/></g><path d="M104.831 5.7l4.461 4.461" class="C G"/><g class="B"><path d="M110.035 9.417v2.974l-1.487-1.487 1.487-1.487zM45.6.991h56.009v.496H45.6z"/><path d="M101.609 1.983v-.496h-.496l.496.496zM45.6 1.487V.991h-.496l.496.496zm-1.983 1.487h57v.991h-57z"/><path d="M43.617 2.974v-.991l.991.991h-.991zm57 .991v-.991l.992.991h-.992z"/></g><g opacity=".4" class="B"><path d="M3.965 51.548v-1.983l-1.983 1.983h1.983z"/><path d="M1.983 51.548h1.983v6H1.983z"/><path d="M1.983 59.53v-1.983h1.983L1.983 59.53z"/></g><path d="M3.965 144.235H0l1.983 1.983 1.983-1.983z" class="B"/><path d="M10.905 153.157l-7.93-7.93" class="C E"/><g class="B"><path d="M11.896 152.166v3.965l-1.983-1.983 1.983-1.982z"/><path d="M11.896 156.131h14.87v-1.983h-14.87z"/><path d="M11.896 152.166v1.982h1.983l-1.983-1.982zM0 129.366h.991v-15.861H0z"/><path d="M.991 128.374v.992h.991l-.991-.992zm0-14.869v.991l.991-.991H.991zm25.774 42.626h14.87v-.991h-14.87z"/><path d="M26.765 154.148v.991h.991l-.991-.991zm14.87 0v.992h-.991l.991-.992zM0 144.235h1.983v-14.87H0z"/><path d="M1.983 142.253v1.982h1.983l-1.983-1.982zm39.652 13.878v-1.983l.991.992-.991.991z"/></g><path d="M42.131 154.644l.991-.991" class="C D"/><path d="M43.617 154.148v-1.982l-.991.991.991.991zM1.983 113.505H0l.991-.992.991.992z" class="B"/><path d="M1.487 113.009l4.957-4.956" class="C D"/><g class="B"><path d="M7.93 107.557H5.947l.991.991.991-.991z"/><path d="M6.939 107.557h.991V94.67h-.991z"/><path d="M6.939 106.566v.991h-.991l.991-.991zm.991-13.091v1.195h-.991l.991-1.195zm93.679 61.665v-.992l.495.496-.495.496z"/></g><path d="M101.857 154.396l1.983-1.983" class="C F"/><g class="B"><path d="M104.087 152.661v-.991l-.496.496.496.495z"/><path d="M104.087 152.661v-2.974l1.487 1.487-1.487 1.487z"/></g><path d="M104.831 150.431l4.461-4.461" class="C G"/><g class="B"><path d="M110.035 146.713v-2.973l-1.487 1.487 1.487 1.486zM45.6 155.14h56.009v-.496H45.6z"/><path d="M101.609 154.148v.496h-.496l.496-.496zm-56.009.496v.496h-.496l.496-.496zm-1.983-1.487h57v-.991h-57z"/><path d="M43.617 153.157v.991l.991-.991h-.991zm57-.991v.991l.992-.991h-.992z"/></g><g opacity=".4" class="B"><path d="M3.965 104.583v1.983l-1.983-1.983h1.983z"/><path d="M1.983 104.583h1.983v-6H1.983z"/><path d="M1.983 96.6v1.983h1.983L1.983 96.6z"/></g><path d="M281.035 11.896H285l-1.983-1.983-1.982 1.983z" class="B"/><path d="M274.095 2.974l7.931 7.93" class="C E"/><g class="B"><path d="M273.104 3.965V0l1.983 1.983-1.983 1.983z"/><path d="M273.104 0h-14.87v1.983h14.87z"/><path d="M273.104 3.965V1.983h-1.982l1.982 1.983zM285 26.765h-.991v15.861H285z"/><path d="M284.009 27.757v-.991h-.992l.992.991zm0 14.869v-.991l-.992.991h.992zM258.235 0h-14.87v.991h14.87z"/><path d="M258.235 1.983V.991h-.991l.991.991zm-14.87 0V.991h.991l-.991.991zM285 11.896h-1.983v14.87H285z"/><path d="M283.017 13.878v-1.983h-1.982l1.982 1.983zM243.365 0v1.983l-.991-.991.991-.991z"/></g><path d="M242.869 1.487l-.991.991" class="C D"/><path d="M241.383 1.983v1.983l.991-.991-.991-.991zm41.634 40.643H285l-.991.991-.992-.991z" class="B"/><path d="M283.513 43.122l-4.956 4.957" class="C D"/><g class="B"><path d="M277.07 48.574h1.983l-.992-.991-.991.991z"/><path d="M278.061 48.574h-.991v12.887h.991z"/><path d="M278.061 49.565v-.991h.991l-.991.991zm-.991 13.091v-1.195h.991l-.991 1.195zM183.391.991v.991l-.495-.496.495-.496z"/></g><path d="M183.143 1.735l-1.983 1.983" class="C F"/><g class="B"><path d="M180.913 3.47v.991l.496-.496-.496-.496z"/><path d="M180.913 3.47v2.974l-1.487-1.487 1.487-1.487z"/></g><path d="M180.169 5.7l-4.461 4.461" class="C G"/><g class="B"><path d="M174.965 9.417v2.974l1.487-1.487-1.487-1.487zM239.4.991h-56.009v.496H239.4z"/><path d="M183.391 1.983v-.496h.496l-.496.496zm56.009-.496V.991h.496l-.496.496zm1.983 1.487h-57v.991h57z"/><path d="M241.383 2.974v-.991l-.992.991h.992zm-57 .991v-.991l-.992.991h.992z"/></g><g opacity=".4" class="B"><path d="M281.035 51.548v-1.983l1.982 1.983h-1.982z"/><path d="M283.017 51.548h-1.983v6h1.983z"/><path d="M283.017 59.53v-1.983h-1.982l1.982 1.983z"/></g><path d="M281.035 144.235H285l-1.983 1.983-1.982-1.983z" class="B"/><path d="M274.095 153.157l7.931-7.93" class="C E"/><g class="B"><path d="M273.104 152.166v3.965l1.983-1.983-1.983-1.982z"/><path d="M273.104 156.131h-14.87v-1.983h14.87z"/><path d="M273.104 152.166v1.982h-1.982l1.982-1.982zm11.896-22.8h-.991v-15.861H285z"/><path d="M284.009 128.374v.992h-.992l.992-.992zm0-14.869v.991l-.992-.991h.992zm-25.774 42.626h-14.87v-.991h14.87z"/><path d="M258.235 154.148v.991h-.991l.991-.991zm-14.87 0v.992h.991l-.991-.992zM285 144.235h-1.983v-14.87H285z"/><path d="M283.017 142.253v1.982h-1.982l1.982-1.982zm-39.652 13.878v-1.983l-.991.992.991.991z"/></g><path d="M242.869 154.644l-.991-.991" class="C D"/><path d="M241.383 154.148v-1.982l.991.991-.991.991zm41.634-40.643H285l-.991-.992-.992.992z" class="B"/><path d="M283.513 113.009l-4.956-4.956" class="C D"/><g class="B"><path d="M277.07 107.557h1.983l-.992.991-.991-.991z"/><path d="M278.061 107.557h-.991V94.67h.991z"/><path d="M278.061 106.566v.991h.991l-.991-.991zm-.991-13.091v1.195h.991l-.991-1.195zm-93.679 61.665v-.992l-.495.496.495.496z"/></g><path d="M183.143 154.396l-1.983-1.983" class="C F"/><g class="B"><path d="M180.913 152.661v-.991l.496.496-.496.495z"/><path d="M180.913 152.661v-2.974l-1.487 1.487 1.487 1.487z"/></g><path d="M180.169 150.431l-4.461-4.461" class="C G"/><g class="B"><path d="M174.965 146.713v-2.973l1.487 1.487-1.487 1.486zm64.435 8.427h-56.009v-.496H239.4z"/><path d="M183.391 154.148v.496h.496l-.496-.496zm56.009.496v.496h.496l-.496-.496zm1.983-1.487h-57v-.991h57z"/><path d="M241.383 153.157v.991l-.992-.991h.992zm-57-.991v.991l-.992-.991h.992z"/></g><g opacity=".4" class="B"><path d="M281.035 104.583v1.983l1.982-1.983h-1.982z"/><path d="M283.017 104.583h-1.983v-6h1.983z"/><path d="M283.017 96.6v1.983h-1.982l1.982-1.983z"/></g></svg>
